X:1
T:Title
%%score 1 2
L:1/8
Q:1/4=85
M:2/4
K:C
V:1 treble nm="Grand Piano, Soprano"
V:2 bass nm="Choir Pad, Nicosia, W. F. Sherwin 1869"
V:1
 [Ec][GB] [FA][EG] | [FA][EG] [CE]2 | [B,G][DF] [B,E][B,D] | [CE][DF] [EG]2 | [Ec][GB] [FA][EG] | %5
w: By~William~Fiske~Sherwin,~1869 * * *|||||
 [FA][EG] [CE]2 | [EG][FA] [EG][DF] | [CE][B,D] C2 | [B,D][CE] [DF][B,D] | [CE][DF] [EG]2 | %10
w: |||||
 [B,D][CE] [DF][B,D] | [CE][DF] [EG]2 | [FA][FA] [FA][Ac] | [GB][FA] [EG]2 | [Ec][EG] [CE]C | %15
w: |||||
 [CE][B,D] C2- | C4 |] %17
w: ||
V:2
 C,C, C,C, | C,C, C,2 | G,,G,, G,,G,, | C,C, C,2 | C,C, C,C, | C,C, C,2 | C,C, C,F, | G,G,, C,2 | %8
 G,,G,, G,,G,, | C,C, C,2 | G,,G,, G,,G,, | C,C, C,2 | F,F, F,F, | F,F, C,2 | C,C, C,A,, | %15
 G,,G,, C,2- | C,4 |] %17

